X: 630
%
T: The Yetts of Muckart
C:Stewart Robertson
O:Scotland
B:Keith Norman MacDonald : "The Skye collection of the best reels & strathspeys extant" : 1887
Z:Ralph Palmer
R:Strathspey
M:C
L:1/8
K:A
e | A/2A/2A cB {cB}A2 Aa | Tf2 (ec) fBBa | A/2A/2A cB {cB}A2 AF | EFAB cAA :|
f | ecae Tf2 (ec) | A/2A/2A (ae) fBBf | ecae faec | {/g}afec eAAf |
ecae Tf2 ec | A/2A/2A (ae) fBBc | Acea faea | Tf2 (ec) eAA|]


